img/manaSymbols/purplew.svg

﻿<?xml version="1.0" encoding="utf-8"?>
<svg width="600" height="600" viewBox="0 0 600 600" version="1.1" xmlns="http://www.w3.org/2000/svg" xml:space="preserve" style="fill-rule: evenodd; clip-rule: evenodd; stroke-linejoin: round; stroke-miterlimit: 2;" preserveAspectRatio="xMidYMid meet" zoomAndPan="magnify" contentScriptType="application/ecmascript" contentStyleType="text/css">
  <circle cx="300" cy="300" r="300" style="fill: rgb(171, 139, 215);" />
  <g transform="matrix(1,0,0,1,-156.29,92.5)">
    <path d="M639.8 178.2c54.3 54.3 87.9 129.3 87.9 212.2 0 165.7-134.3 300-300 300-82.8 0-157.8-33.6-212.1-87.9" style="fill: rgb(248, 246, 216); fill-rule: nonzero;" transform="matrix(1,0,0,1,28.57,-182.86)" />
    <path d="M655.7 529c-14.6-13.6-24.3-20.9-29.1-22.1-3.5-.8-6.8 1.2-10 6-3.2 4.8-7.7 6.6-13.6 5.1-2.4-.6-7-2.6-14-6.1-5.6 5.3-8.6 8.8-9.1 10.5-.6 2.4.5 5.6 3.3 9.7s5.4 6.4 7.8 7c1.5.4 3.7.5 6.5.5s4.7.1 5.6.3c2.7.6 2.8 5.8.5 15.6-2.2 9.3-7.8 23.1-16.8 41.4-.4-23.5-3.7-35.9-9.9-37.4-.9-.2-2.8 0-5.8.7-3 .6-5.2.8-6.5.5-6.3-1.5-10.5-8.6-12.8-21.3-10.3-.9-16.5 3-18.6 11.7-1 4.4.1 8.3 3.5 11.9 3.4 3.6 4.9 5.9 4.7 7-1.4 5.9-12.1 12.8-32.1 20.8-10.7 4.3-18 7.4-22.1 9.1 4-3.2 8.2-7.5 12.8-13.1 5.2-6.3 8.2-11.4 9.2-15.4.5-2.2-1.3-5.8-5.3-10.9-4.1-5.1-5.6-9.8-4.5-14.1.9-3.7 3.3-7.9 7.2-12.7-2-3.9-5-6.4-8.9-7.3-8.7-2.1-13.7-.3-15 5.3.9-3.9.2-1-2.1 8.8-1.5 7.2-7.8 9.5-18.8 6.8-8.5-2-22.2-7.4-41.2-16 23.9-.2 36.7-4 38.5-11.4-.2.9 0-1.8.6-8.1.7-6.9 7-11.9 18.6-14.8.4-10.4-3.6-16.7-12-18.7-1.3-.3-4.2 1.4-8.8 5.1-4.6 3.7-8.4 5.2-11.4 4.5-5.2-1.2-10.6-8.5-16.1-21.7-2.6-6.6-6.5-16.3-11.9-29.3 4.4 3.8 8.7 7.6 13.1 11.4 5.8 4.6 10.6 7.4 14.5 8.3 3 .7 6.6-1.2 10.8-5.8 4.2-4.6 8.7-6.3 13.4-5.2.7.2 4.7 2.5 12.1 7 5.6-5.3 8.8-9.5 9.5-12.5.6-2.6-.2-6-2.6-10.1-2.3-4.1-4.8-6.5-7.4-7.1-1.1-.3-2.8-.3-5.3-.2-2.4.1-4.2 0-5.3-.2-3.9-.9-4.7-6.3-2.4-16 .6-2.6 6.7-16.9 18.1-42.7-1 3.2-1 9.6-.1 19.2 1.1 11.7 4.1 18.2 9.1 19.4.9.2 2.8 0 5.7-.7 2.9-.7 5.1-.8 6.6-.5 5 1.2 8.4 5 10.3 11.4l2.8 9.9c4.5 1.1 8.7.4 12.5-2.1 3.8-2.5 6.3-6.1 7.4-10.6 1.1-4.8 0-8.9-3.4-12.3-3.4-3.5-5-5.8-4.6-7.1 1.1-4.5 10.1-10.5 27-17.9 13.6-5.9 22.3-9.2 26.1-9.9-12.3 10.4-19.2 18.4-20.6 24.3-.7 3 .3 6.7 3.2 11.1 3.6 5.2 5.5 8.8 5.7 10.6 1 5.5-.9 12.3-5.5 20.3 4.9 5.5 8.8 8.6 11.9 9.4 6.3 1.5 10.2-1 11.7-7.5.2-.7.4-2.8.7-6.4.3-3.6.6-5.6.9-6 1.6-2.8 7.9-2.9 19-.3 6.9 1.7 20.9 7.1 41.8 16.2-5.1.2-12.7.4-22.9.7-9.3.5-14.3 2.4-15.1 5.7-.4 1.5-.4 4.2-.2 8.2.2 3.9.1 6.8-.3 8.5-.7 3-3.4 5.4-7.9 7.1l-12.9 5.2c1.5 5.4 2.5 8.6 3.2 9.7 1.6 3.1 4.2 5.1 7.8 6 2.6.6 5.5-1.1 8.8-5.1 3.3-4 7.3-5.5 12-4.3 5.9 1.4 11.2 8.4 15.9 21 2.7 7.1 6.9 17.8 12.6 32.2m-67.6-36.1c3.3-13.9 1.1-27.1-6.6-39.7-7.8-12.6-18.6-20.6-32.4-23.9-14.1-3.4-27.4-1.2-40 6.4-12.6 7.6-20.7 18.5-24.3 32.5-3.5 13.8-1.3 27 6.8 39.6 8.1 12.6 19.1 20.6 33 23.9 14.7 3.5 28.2 1.6 40.4-5.6 12.2-7.3 19.9-18.3 23.2-33.1m-4.9-1.2c-3.2 13.2-10.2 23.1-21.2 29.6-11 6.5-23.1 8.2-36.3 5.1-12.8-3.1-22.7-10.1-29.6-21.2-7-11.1-8.9-23-5.9-35.8 3-12.6 10.2-22.3 21.6-29 11.4-6.8 23.3-8.7 35.9-5.7 12.6 3 22.4 10.2 29.4 21.5s9.1 23.2 6.1 35.5" style="fill: rgb(33, 29, 21); fill-rule: nonzero;" transform="matrix(1,0,0,1,28.57,-182.86)" />
    <path d="M-52.703 176.592c-.486-.084-2.298-.33-4.028-.545-7.018-.876-15.807-3.768-23.124-7.61-6.187-3.246-7.292-4.45-2.992-3.258 13.726 3.805 31.992-1.64 46.58-13.884 7.953-6.674 12.396-13.07 14.398-20.72 2.89-11.042 1.786-18.535-3.828-26.004-2.158-2.87-4.536-4.726-8.818-6.878-2.944-1.48-3.404-1.82-2.87-2.12.377-.21 1.526-.26 2.802-.12 6.94.764 12.7 3.824 18.424 9.79 6.27 6.534 10.745 15.45 12.162 24.222.54 3.34.457 10.03-.16 12.93-2.764 12.99-11.01 23.936-22.266 29.547-6.198 3.09-12.223 4.492-20.108 4.677-2.91.07-5.688.056-6.173-.028zM-81.63 150.64c-3.6-.272-5.225-.636-9.373-2.1-14.745-5.2-24.403-16.283-27.726-31.816-1-4.683-1.102-14.833-.2-20.014a75.808 75.808 0 0 1 7.55-22.212c3.248-6.187 4.452-7.292 3.26-2.99-3.22 11.61.112 26.466 8.965 39.978 7.095 10.827 15.772 18.18 24.4 20.67 11.476 3.314 19.558 2.276 27.242-3.5 2.87-2.158 4.726-4.536 6.878-8.818 1.515-3.012 1.816-3.413 2.134-2.844.55.983-.283 6.53-1.4 9.327-1.685 4.22-3.645 7.09-7.512 10.996-4.167 4.21-7.63 6.68-12.843 9.164-7.076 3.37-14 4.718-21.376 4.16zm92.166-8.334c.095-.533.448-2.16.784-3.616 1.4-6.054.603-15.13-2-22.754-4.634-13.578-15.35-27.458-25.687-33.27-4.794-2.695-12.937-4.487-19.15-4.215-6.598.29-11.656 2.537-16.487 7.324-2.188 2.167-3.03 3.348-4.655 6.526-1.8 3.522-2.005 3.792-2.224 2.92-.387-1.54.43-6.37 1.58-9.354 4.234-10.98 16.786-20.598 30.736-23.555 8.395-1.778 16.814-.55 25.47 3.717 16.698 8.232 25.4 25.56 23.164 46.13-1.094 10.07-5.22 21.892-10.582 30.326-.69 1.084-1.157.998-.948-.177zM-64.17 115.86c-6.167-.852-12.233-4.3-17.6-10.005-5.99-6.368-10.09-14.46-11.696-23.08-.89-4.777-.572-12.32.7-16.58 3.797-12.727 11.453-21.948 22.57-27.187 14.716-6.935 34.473-5.44 52.404 3.966 6.186 3.245 7.293 4.45 2.992 3.258-9.684-2.685-21.143-.956-32.974 4.974-11.774 5.902-22.232 15.58-26.134 24.188-1.31 2.888-2.67 8.14-3.17 12.252-.876 7.16.803 13.44 5.128 19.193 2.157 2.868 4.536 4.725 8.81 6.873 2.553 1.284 3.36 1.843 2.997 2.073-.5.318-2.06.346-4.026.075z" style="fill: rgb(33, 29, 21); fill-rule: nonzero;" transform="matrix(1.63436,0,0,1.67005,444.927,-87.0378)" />
  </g>
</svg>

<?xml version="1.0" encoding="UTF-8" standalone="no"?>
<!DOCTYPE svg PUBLIC "-//W3C//DTD SVG 1.1//EN" "http://www.w3.org/Graphics/SVG/1.1/DTD/svg11.dtd">
<svg width="600" height="600" viewBox="0 0 600 600" version="1.1" xmlns="http://www.w3.org/2000/svg" xmlns:xlink="http://www.w3.org/1999/xlink" xml:space="preserve" xmlns:serif="http://www.serif.com/" style="fill-rule:evenodd;clip-rule:evenodd;stroke-linejoin:round;stroke-miterlimit:2;">
    <circle cx="300" cy="300" r="300" style="fill:rgb(171,139,215);"/>
    <g transform="matrix(1,0,0,1,-156.29,92.5)">
        <g transform="matrix(1,0,0,1,28.57,-182.86)">
            <path d="M639.8,178.2C694.1,232.5 727.7,307.5 727.7,390.4C727.7,556.1 593.4,690.4 427.7,690.4C344.9,690.4 269.9,656.8 215.6,602.5" style="fill:rgb(248,246,216);fill-rule:nonzero;"/>
        </g>
        <g transform="matrix(1,0,0,1,28.57,-182.86)">
            <path d="M655.7,529C641.1,515.4 631.4,508.1 626.6,506.9C623.1,506.1 619.8,508.1 616.6,512.9C613.4,517.7 608.9,519.5 603,518C600.6,517.4 596,515.4 589,511.9C583.4,517.2 580.4,520.7 579.9,522.4C579.3,524.8 580.4,528 583.2,532.1C586,536.2 588.6,538.5 591,539.1C592.5,539.5 594.7,539.6 597.5,539.6C600.3,539.6 602.2,539.7 603.1,539.9C605.8,540.5 605.9,545.7 603.6,555.5C601.4,564.8 595.8,578.6 586.8,596.9C586.4,573.4 583.1,561 576.9,559.5C576,559.3 574.1,559.5 571.1,560.2C568.1,560.8 565.9,561 564.6,560.7C558.3,559.2 554.1,552.1 551.8,539.4C541.5,538.5 535.3,542.4 533.2,551.1C532.2,555.5 533.3,559.4 536.7,563C540.1,566.6 541.6,568.9 541.4,570C540,575.9 529.3,582.8 509.3,590.8C498.6,595.1 491.3,598.2 487.2,599.9C491.2,596.7 495.4,592.4 500,586.8C505.2,580.5 508.2,575.4 509.2,571.4C509.7,569.2 507.9,565.6 503.9,560.5C499.8,555.4 498.3,550.7 499.4,546.4C500.3,542.7 502.7,538.5 506.6,533.7C504.6,529.8 501.6,527.3 497.7,526.4C489,524.3 484,526.1 482.7,531.7C483.6,527.8 482.9,530.7 480.6,540.5C479.1,547.7 472.8,550 461.8,547.3C453.3,545.3 439.6,539.9 420.6,531.3C444.5,531.1 457.3,527.3 459.1,519.9C458.9,520.8 459.1,518.1 459.7,511.8C460.4,504.9 466.7,499.9 478.3,497C478.7,486.6 474.7,480.3 466.3,478.3C465,478 462.1,479.7 457.5,483.4C452.9,487.1 449.1,488.6 446.1,487.9C440.9,486.7 435.5,479.4 430,466.2C427.4,459.6 423.5,449.9 418.1,436.9C422.5,440.7 426.8,444.5 431.2,448.3C437,452.9 441.8,455.7 445.7,456.6C448.7,457.3 452.3,455.4 456.5,450.8C460.7,446.2 465.2,444.5 469.9,445.6C470.6,445.8 474.6,448.1 482,452.6C487.6,447.3 490.8,443.1 491.5,440.1C492.1,437.5 491.3,434.1 488.9,430C486.6,425.9 484.1,423.5 481.5,422.9C480.4,422.6 478.7,422.6 476.2,422.7C473.8,422.8 472,422.7 470.9,422.5C467,421.6 466.2,416.2 468.5,406.5C469.1,403.9 475.2,389.6 486.6,363.8C485.6,367 485.6,373.4 486.5,383C487.6,394.7 490.6,401.2 495.6,402.4C496.5,402.6 498.4,402.4 501.3,401.7C504.2,401 506.4,400.9 507.9,401.2C512.9,402.4 516.3,406.2 518.2,412.6L521,422.5C525.5,423.6 529.7,422.9 533.5,420.4C537.3,417.9 539.8,414.3 540.9,409.8C542,405 540.9,400.9 537.5,397.5C534.1,394 532.5,391.7 532.9,390.4C534,385.9 543,379.9 559.9,372.5C573.5,366.6 582.2,363.3 586,362.6C573.7,373 566.8,381 565.4,386.9C564.7,389.9 565.7,393.6 568.6,398C572.2,403.2 574.1,406.8 574.3,408.6C575.3,414.1 573.4,420.9 568.8,428.9C573.7,434.4 577.6,437.5 580.7,438.3C587,439.8 590.9,437.3 592.4,430.8C592.6,430.1 592.8,428 593.1,424.4C593.4,420.8 593.7,418.8 594,418.4C595.6,415.6 601.9,415.5 613,418.1C619.9,419.8 633.9,425.2 654.8,434.3C649.7,434.5 642.1,434.7 631.9,435C622.6,435.5 617.6,437.4 616.8,440.7C616.4,442.2 616.4,444.9 616.6,448.9C616.8,452.8 616.7,455.7 616.3,457.4C615.6,460.4 612.9,462.8 608.4,464.5L595.5,469.7C597,475.1 598,478.3 598.7,479.4C600.3,482.5 602.9,484.5 606.5,485.4C609.1,486 612,484.3 615.3,480.3C618.6,476.3 622.6,474.8 627.3,476C633.2,477.4 638.5,484.4 643.2,497C645.9,504.1 650.1,514.8 655.8,529.2M588.2,493.1C591.5,479.2 589.3,466 581.6,453.4C573.8,440.8 563,432.8 549.2,429.5C535.1,426.1 521.8,428.3 509.2,435.9C496.6,443.5 488.5,454.4 484.9,468.4C481.4,482.2 483.6,495.4 491.7,508C499.8,520.6 510.8,528.6 524.7,531.9C539.4,535.4 552.9,533.5 565.1,526.3C577.3,519 585,508 588.3,493.2M583.4,492C580.2,505.2 573.2,515.1 562.2,521.6C551.2,528.1 539.1,529.8 525.9,526.7C513.1,523.6 503.2,516.6 496.3,505.5C489.3,494.4 487.4,482.5 490.4,469.7C493.4,457.1 500.6,447.4 512,440.7C523.4,433.9 535.3,432 547.9,435C560.5,438 570.3,445.2 577.3,456.5C584.3,467.8 586.4,479.7 583.4,492" style="fill:rgb(33,29,21);fill-rule:nonzero;"/>
        </g>
        <g transform="matrix(1.63436,0,0,1.67005,444.927,-87.0378)">
            <path d="M-52.703,176.592C-53.189,176.508 -55.001,176.263 -56.731,176.047C-63.748,175.171 -72.537,172.279 -79.854,168.438C-86.041,165.191 -87.146,163.987 -82.846,165.179C-69.12,168.985 -50.854,163.541 -36.265,151.296C-28.313,144.622 -23.87,138.227 -21.868,130.576C-18.979,119.534 -20.082,112.041 -25.696,104.572C-27.854,101.701 -30.232,99.846 -34.514,97.694C-37.458,96.214 -37.918,95.873 -37.383,95.574C-37.007,95.363 -35.858,95.315 -34.582,95.455C-27.641,96.218 -21.881,99.278 -16.158,105.244C-9.889,111.778 -5.413,120.693 -3.996,129.466C-3.457,132.806 -3.539,139.497 -4.156,142.395C-6.92,155.387 -15.167,166.332 -26.422,171.943C-32.62,175.033 -38.645,176.435 -46.53,176.62C-49.44,176.689 -52.218,176.676 -52.703,176.592ZM-81.631,150.64C-85.231,150.368 -86.855,150.004 -91.003,148.541C-105.748,143.34 -115.406,132.257 -118.729,116.724C-119.73,112.041 -119.832,101.891 -118.93,96.71C-117.581,88.959 -115.028,81.45 -111.379,74.498C-108.132,68.311 -106.928,67.206 -108.12,71.507C-111.34,83.117 -108.008,97.974 -99.155,111.486C-92.06,122.313 -83.383,129.665 -74.756,132.156C-63.279,135.47 -55.197,134.432 -47.513,128.656C-44.642,126.498 -42.787,124.12 -40.635,119.838C-39.12,116.826 -38.819,116.425 -38.501,116.994C-37.951,117.977 -38.783,123.524 -39.9,126.321C-41.585,130.54 -43.545,133.41 -47.412,137.316C-51.579,141.526 -55.042,143.997 -60.255,146.48C-67.331,149.85 -74.256,151.198 -81.631,150.64ZM10.536,142.306C10.631,141.773 10.984,140.146 11.32,138.69C12.721,132.636 11.923,123.561 9.321,115.936C4.686,102.358 -6.03,88.478 -16.367,82.666C-21.161,79.971 -29.304,78.179 -35.518,78.451C-42.115,78.74 -47.173,80.987 -52.004,85.774C-54.192,87.941 -55.034,89.122 -56.659,92.3C-58.459,95.822 -58.665,96.092 -58.884,95.22C-59.271,93.679 -58.455,88.851 -57.304,85.866C-53.07,74.887 -40.518,65.268 -26.568,62.311C-18.173,60.532 -9.754,61.76 -1.099,66.027C15.6,74.259 24.302,91.588 22.066,112.158C20.972,122.226 16.846,134.049 11.484,142.483C10.795,143.567 10.327,143.481 10.536,142.306ZM-64.169,115.861C-70.337,115.008 -76.403,111.559 -81.769,105.855C-87.759,99.487 -91.86,91.396 -93.466,82.775C-94.356,77.998 -94.038,70.454 -92.767,66.195C-88.969,53.468 -81.313,44.247 -70.196,39.008C-55.48,32.073 -35.723,33.568 -17.792,42.974C-11.606,46.219 -10.499,47.425 -14.8,46.232C-24.484,43.547 -35.943,45.276 -47.774,51.206C-59.548,57.108 -70.006,66.787 -73.908,75.394C-75.217,78.282 -76.577,83.533 -77.079,87.646C-77.954,94.805 -76.275,101.085 -71.95,106.839C-69.793,109.708 -67.414,111.565 -63.141,113.713C-60.587,114.997 -59.779,115.556 -60.143,115.786C-60.644,116.104 -62.204,116.132 -64.169,115.861Z" style="fill:rgb(33,29,21);fill-rule:nonzero;"/>
        </g>
    </g>
</svg>
